icons/svg/seamark_big/topmark_vertical_black_2conespointtogether_big.svg

<?xml version="1.0" encoding="UTF-8" standalone="no"?>
<svg
   xmlns:dc="http://purl.org/dc/elements/1.1/"
   xmlns:cc="http://creativecommons.org/ns#"
   xmlns:rdf="http://www.w3.org/1999/02/22-rdf-syntax-ns#"
   xmlns:svg="http://www.w3.org/2000/svg"
   xmlns="http://www.w3.org/2000/svg"
   xmlns:sodipodi="http://sodipodi.sourceforge.net/DTD/sodipodi-0.dtd"
   xmlns:inkscape="http://www.inkscape.org/namespaces/inkscape"
   width="1060"
   height="1060"
   id="svg2"
   version="1.1"
   inkscape:version="0.48.4 r9939"
   sodipodi:docname="topmark_vertical_black_2conesdown_big.svg">
  <defs
     id="defs13">
    <inkscape:path-effect
       effect="gears"
       id="path-effect3774"
       is_visible="true"
       teeth="6"
       phi="-1.2" />
    <inkscape:path-effect
       effect="bend_path"
       id="path-effect3772"
       is_visible="false"
       bendpath="m 95.790098,316.51174 c 144.429032,-206.42506 223.313032,-11.7428 339.548092,0"
       prop_scale="1.19"
       scale_y_rel="false"
       vertical="false"
       bendpath-nodetypes="cc" />
  </defs>
  <sodipodi:namedview
     pagecolor="#ffffff"
     bordercolor="#666666"
     borderopacity="1"
     objecttolerance="10"
     gridtolerance="10"
     guidetolerance="10"
     inkscape:pageopacity="0"
     inkscape:pageshadow="2"
     inkscape:window-width="1920"
     inkscape:window-height="1004"
     id="namedview11"
     showgrid="false"
     inkscape:zoom="0.57543862"
     inkscape:cx="721.54353"
     inkscape:cy="586.2818"
     inkscape:window-x="1680"
     inkscape:window-y="0"
     inkscape:window-maximized="1"
     inkscape:current-layer="svg2" />
  <metadata
     id="metadata2975">image/svg+xmlen<rdf:RDF>
  <cc:Work
     rdf:about="">
    <dc:format>image/svg+xml</dc:format>
    <dc:type
       rdf:resource="http://purl.org/dc/dcmitype/StillImage" />
    <dc:title></dc:title>
  </cc:Work>
</rdf:RDF>
</metadata>
  <path
     style="opacity:0.43913042;color:#000000;fill:#acd8f3;fill-opacity:1;fill-rule:nonzero;stroke:#a35151;stroke-width:0;stroke-linecap:round;stroke-linejoin:miter;stroke-miterlimit:4;stroke-opacity:1;stroke-dashoffset:0;marker:none;visibility:visible;display:inline;overflow:visible;enable-background:accumulate"
     d="m 475.04688,57.785473 c -6.75008,-0.0026 -13.37059,3.840804 -16.71549,9.703842 -3.3449,5.863038 -3.2843,13.518055 0.15299,19.327408 l 37.5,63.343747 -39.03125,63.09375 c -3.57633,5.79061 -3.75063,13.52197 -0.43891,19.46787 3.31172,5.94591 9.97669,9.86795 16.78266,9.87588 l 25.03125,0 0,274.3125 c 0.004,5.03023 2.07714,10.02778 5.63406,13.58469 3.55691,3.55692 8.55446,5.62958 13.58468,5.63406 l 25,0 c 5.03024,-0.004 10.02779,-2.07714 13.5847,-5.63406 3.55692,-3.55691 5.62958,-8.55446 5.63405,-13.58469 l 0,-274.3125 23.1875,0 c 6.74096,-0.004 13.34954,-3.84253 16.69263,-9.69609 3.34309,-5.85357 3.29158,-13.49594 -0.13013,-19.30391 l -37.5,-63.375 39.03125,-63.093747 c 3.57634,-5.790611 3.75063,-13.521967 0.43892,-19.467872 -3.31172,-5.945904 -9.97669,-9.867953 -16.78267,-9.875878 z"
     id="path3238"
     inkscape:connector-curvature="0"
     sodipodi:nodetypes="cscccscccsccscccscccscc" />
  <path
     inkscape:connector-curvature="0"
     style="fill:#000000;fill-opacity:1;stroke:none"
     d="m 585.83501,77.294608 -111.67002,-0.004 54.58138,92.238192"
     id="path3822-6-6-6-5"
     sodipodi:nodetypes="ccc"
     inkscape:transform-center-y="8.5729552" />
  <path
     style="color:#000000;fill:none;stroke:#000000;stroke-width:23.79420853;stroke-linecap:butt;stroke-linejoin:miter;stroke-miterlimit:4;stroke-opacity:1;stroke-dasharray:none;stroke-dashoffset:0;marker:none;visibility:visible;display:inline;overflow:visible;enable-background:accumulate"
     d="m 530.00001,516.08566 0,-403.77871"
     id="path3065-2"
     inkscape:connector-curvature="0" />
  <path
     inkscape:connector-curvature="0"
     style="fill:#000000;fill-opacity:1;stroke:none"
     d="m 474.16498,223.6764 111.67006,0.004 -54.58144,-92.23823"
     id="path3822-6-6-69"
     sodipodi:nodetypes="ccc" />
</svg>

<svg width="1060" height="1060" viewBox="0 0 1060 1060" fill="none" xmlns="http://www.w3.org/2000/svg">
<path opacity="0.43913" d="M475.047 57.7856C468.297 57.783 461.676 61.6264 458.331 67.4895C454.986 73.3525 455.047 81.0075 458.484 86.8169L495.984 150.161L456.953 213.254C453.377 219.045 453.202 226.776 456.514 232.722C459.826 238.668 466.491 242.59 473.297 242.598H498.328V516.911C498.332 521.941 500.405 526.938 503.962 530.495C507.519 534.052 512.517 536.125 517.547 536.129H542.547C547.577 536.125 552.575 534.052 556.132 530.495C559.688 526.938 561.761 521.941 561.766 516.911V242.598H584.953C591.694 242.594 598.303 238.756 601.646 232.902C604.989 227.048 604.937 219.406 601.516 213.598L564.016 150.223L603.047 87.1294C606.623 81.3388 606.797 73.6074 603.486 67.6615C600.174 61.7156 593.509 57.7936 586.703 57.7856H475.047Z" fill="#ACD8F3"/>
<path d="M585.835 77.2945L474.165 77.2905L528.746 169.529" fill="black"/>
<path d="M530 516.086V112.307" stroke="black" stroke-width="23.7942"/>
<path d="M474.165 223.677L585.835 223.681L531.254 131.442" fill="black"/>
</svg>
